dist/img/features/trend-1.svg

<svg width="74" height="74" viewBox="0 0 74 74" fill="none" xmlns="http://www.w3.org/2000/svg">
<path d="M4.33594 47.6953H17.4883V71.832H4.33594V47.6953Z" fill="#FED843"/>
<path d="M39.168 43.3594H52.3203V71.832H39.168V43.3594Z" fill="#FED843"/>
<path d="M21.8242 34.6875H34.832V71.832H21.8242V34.6875Z" fill="#A7F2F2"/>
<path d="M56.6562 26.0156H69.6641V71.832H56.6562V26.0156Z" fill="#A7F2F2"/>
<path d="M10.9844 47.6953H17.4883V71.832H10.9844V47.6953Z" fill="#FABE2C"/>
<path d="M28.3281 34.6875H34.832V71.832H28.3281V34.6875Z" fill="#AB66D9"/>
<path d="M45.6719 43.3594H52.3203V71.832H45.6719V43.3594Z" fill="#FABE2C"/>
<path d="M63.1602 26.0156H69.6641V71.832H63.1602V26.0156Z" fill="#AB66D9"/>
<path d="M56.6563 0V4.33594H66.5984L45.6719 25.1179L37 16.4461L28.3281 7.77419L0.635216 35.3227L3.70072 38.3882L28.3281 13.9055L37 22.5774L45.6719 31.2492L69.6641 7.40159V17.3438H74V0L56.6563 0Z" fill="#9A4FD5"/>
<path d="M69.6641 7.40159V17.3438H74V0H56.6562V4.33594H66.5984L45.6719 25.1179L37 16.4461V22.5774L45.6719 31.2492L69.6641 7.40159Z" fill="#AB66D9"/>
<path d="M37 69.6641H0V74H37H74V69.6641H37Z" fill="#2D5177"/>
<path d="M37 69.6641H74V74H37V69.6641Z" fill="#32405D"/>
</svg>

<svg width="74" height="74" fill="none" xmlns="http://www.w3.org/2000/svg"><path d="M4.336 47.695h13.152v24.137H4.336V47.695zm34.832-4.335H52.32v28.472H39.168V43.359z" fill="#FED843"/><path d="M21.824 34.688h13.008v37.144H21.824V34.688zm34.832-8.672h13.008v45.816H56.656V26.016z" fill="#A7F2F2"/><path d="M10.984 47.695h6.504v24.137h-6.504V47.695z" fill="#FABE2C"/><path d="M28.328 34.688h6.504v37.144h-6.504V34.688z" fill="#AB66D9"/><path d="M45.672 43.36h6.648v28.472h-6.648V43.359z" fill="#FABE2C"/><path d="M63.16 26.016h6.504v45.816H63.16V26.016z" fill="#AB66D9"/><path d="M56.656 0v4.336h9.942L45.672 25.118 37 16.446l-8.672-8.672L.635 35.323l3.066 3.065 24.627-24.482L37 22.576l8.672 8.672L69.664 7.402v9.942H74V0H56.656z" fill="#9A4FD5"/><path d="M69.664 7.402v9.942H74V0H56.656v4.336h9.942L45.672 25.118 37 16.446v6.131l8.672 8.672L69.664 7.402z" fill="#AB66D9"/><path d="M37 69.664H0V74h74v-4.336H37z" fill="#2D5177"/><path d="M37 69.664h37V74H37v-4.336z" fill="#32405D"/></svg>
